X:1
T:Title
%%score { 1 | ( 2 3 ) }
L:1/8
Q:1/4=110
M:4/4
K:C
V:1 treble nm="Grand Piano"
V:2 bass 
V:3 bass 
V:1
 [Ec]2 G2 [Ec]2 G2 | [Ec]4 [EG]2 z2 | [Ec]2 Gc [Ge]2 dc | [Fd]4 [Ec]2 z2 | %4
w: G.~F.~Root * * *||||
 [EG]2 [EG]2 [EG]2 [EG]2 | [FA]2 [EG]2 [CE]2 [CEG]2 | [CFA]2 [CAc]2 [CGB]2 [CFA]2 | %7
w: |||
 [CEG]2 [B,DF]2 [CE]4 | [EG]2 [EG]2 [EG]2 [EG]2 | [FA]2 [EG]2 [G,CE]2 [CEG]2 | %10
w: |||
 [CEc]2 [CEc]2 [DGB]2 [CEA]2 | [B,DG]2 [A,D^F]2 [B,G]4 | [Fd]2 B>A [FG]2 A>B | [Ec]4 [EG]2 z2 | %14
w: ||||
 [Fd]2 B>A [FG]2 A>B | [Ec]4 [EG]2 z2 | [Ec]2 c2 B2 A2 | [EG]6 [FA]2 | [EG]4 [DF]4 | [CE]6 z2 | %20
w: ||||||
 [Ec]2 c2 B2 A2 | [EG]6 [Gc]2 | [Fd]4 [Ec]2 [DB]2 | [Ec]6 z2 | [EG]2 [EG]2 [EG]2 [EG]2 | %25
w: |||||
 [FA]2 [EG]2 [G,CE]2 [CEG]2 | [CFA]2 [CAc]2 [CGB]2 [CFA]2 | [CEG]2 [B,DF]2 [CE]4 | %28
w: |||
 [EG]3 [EG] [EG]2 [EG]2 | [FA]2 [EG]2 [G,CE]2 [CEG]2 | [CEc]2 [CEc]2 [DGB]2 [CEA]2 | G2 ^F2 G4 | %32
w: ||||
 B3 c d2 G2 | [Ec]2 [FA]2 [EG]2 [CE]2 | [DB]3 [Dc] [Dd]2 [EG]2 | [DB]2 [C^FA]2 [B,G]4 | %36
w: ||||
 [EG]3 [EG] [EG]2 [EG]2 | [FA]2 [EG]2 [CE]2 [EG]2 | [Gc]3 [Gc] d2 d2 | c2 [DFB]2 [CEc]4 | [Fc]8 | %41
w: |||||
 [Ec]6 z2 |] %42
w: |
V:2
 z2 E2 z2 E2 | C,4 C,2 z2 | z2 EE z2[K:treble] FE | [G,,G,]4 [C,G,]2 z2 | %4
 [C,C]2 [C,C]2 [C,C]2 [C,C]2 | [C,C]2 [C,C]2 C,2 C,2 | F,2 F,2 F,2 F,2 | G,2 G,,2 C,4 | %8
 [C,C]2 [C,C]2 [C,C]2 [C,C]2 | [C,C]2 [C,C]2 C,2 C,2 | A,,2 A,,2 B,,2 C,2 | D,2 D,2 G,4 | %12
 z2[K:treble] F>F[K:bass] z2[K:treble] F>F | [C,G,]6 z2 | %14
 z2[K:treble] F>F[K:bass] z2[K:treble] F>F | [C,G,]6 z2 | z2[K:treble] A2 G2 F2 | %17
 [C,,C,]6 [F,,F,]2 | [G,,G,]4 [G,,G,]4 | [C,G,]6 z2 | z2[K:treble] A2 G2 F2 | [C,,C,]6 [E,,E,]2 | %22
 [F,,F,]4 [G,,G,]4 | [C,G,]6 z2 | [C,C]2 [C,C]2 [C,C]2 [C,C]2 | [C,C]2 [C,C]2 C,2 C,2 | %26
 F,2 F,2 F,2 F,2 | G,2 G,,2 C,4 | [C,C]3 [C,C] [C,C]2 [C,C]2 | [C,C]2 [C,C]2 C,2 C,2 | %30
 A,,2 A,,2 B,,2 C,2 | [D,B,D]2 [D,A,C]2 [G,B,]4 | [G,D]3 [G,E] [G,F]2 [G,F]2 | %33
 [C,G,]2 [C,C]2 [C,C]2 [C,G,]2 | [G,,G,]3 [A,,G,] [B,,G,]2 [C,G,]2 | [D,G,]2 D,2 G,,4 | %36
 [C,C]3 [C,C] [C,C]2 [C,C]2 | [C,C]2 [C,C]2 [C,G,]2 [C,C]2 | [E,C]3 [E,C] [F,A,F]2 [F,A,F]2 | %39
 [G,E]2 G,,2 C,4 | [F,A,]8 | [C,G,]6 z2 |] %42
V:3
 C,4 C,4 | x8 | C,4 C,4[K:treble] | x8 | x8 | x8 | x8 | x8 | x8 | x8 | x8 | x8 | %12
 [G,,G,]4[K:treble][K:bass] [G,,G,]4[K:treble] | x8 | %14
 [G,,G,]4[K:treble][K:bass] [G,,G,]4[K:treble] | x8 | [C,,C,]8[K:treble] | x8 | x8 | x8 | %20
 [C,,C,]8[K:treble] | x8 | x8 | x8 | x8 | x8 | x8 | x8 | x8 | x8 | x8 | x8 | x8 | x8 | x8 | x8 | %36
 x8 | x8 | x8 | x8 | x8 | x8 |] %42

